resources/fingerprint.svg

<!-- This Source Code Form is subject to the terms of the Mozilla Public
   - License, v. 2.0. If a copy of the MPL was not distributed with this
   - file, You can obtain one at http://mozilla.org/MPL/2.0/. -->
<svg xmlns="http://www.w3.org/2000/svg"
     width="32" height="32" viewBox="0 0 32 32">
  <path fill="context-fill" d="M7.17741905,12 C7.10965537,12 7.041327,11.9953181 6.97243393,11.985018 C6.33263187,11.8918489 5.90515601,11.3862071 6.01809547,10.8552833 C7.41798011,4.26321358 12.2613889,2.57493207 15.0238882,2.15590491 C19.6448063,1.45690206 24.3408291,3.21541158 25.8344535,5.29743816 C26.1664955,5.76047488 25.9835336,6.35881757 25.4244832,6.63364321 C24.8654329,6.9098734 24.1437497,6.75583996 23.8122724,6.29327142 C22.8923805,5.01043967 19.1749781,3.51130562 15.4479759,4.07406612 C12.8080159,4.474834 9.43056132,6.03623689 8.33561323,11.1942506 C8.23453242,11.666651 7.73816348,12 7.17741905,12 Z M16.63127,26 C16.1452186,26 15.6509104,25.9658335 15.147795,25.8938767 C10.637921,25.257137 6.71207921,21.8114952 6.01575422,17.8807924 C5.91171832,17.2932317 6.33391695,16.7382846 6.95813239,16.6404441 C7.58454965,16.5343208 8.17298555,16.9406954 8.27757192,17.5272206 C8.80876054,20.5255916 11.9766264,23.26409 15.4885263,23.7610576 C17.3975027,24.02766 20.959494,23.8221432 23.3220449,19.3789425 C24.4625867,17.2331815 23.0049831,11.881462 19.9521622,9.34692739 C18.2380468,7.92384005 16.4573263,7.76905536 14.6628445,8.89499751 C13.26469,9.77142052 11.8070864,12.2857658 11.8665355,14.6287608 C11.9127737,16.4835887 12.8386382,17.9325598 14.6171568,18.9363308 C15.2210054,19.2764429 16.9411759,19.4933486 17.9424527,18.8296898 C18.7257495,18.3104622 18.9591422,17.2761485 18.6365758,15.7583267 C18.3822659,14.5650869 17.2219077,12.4452096 16.6664991,12.3711821 C16.6692513,12.3722175 16.4666841,12.4312324 16.1276041,12.9095636 C15.8545786,13.2936782 15.58981,14.7297074 15.9476054,15.3581643 C16.0142104,15.4761941 16.0725586,15.5465978 16.3202632,15.5465978 C16.9532859,15.5465978 17.46686,16.0290705 17.46686,16.6249139 C17.46686,17.2207573 16.9543868,17.7042653 16.3213641,17.7042653 C15.2644914,17.7042653 14.4140391,17.2336992 13.9268868,16.3774655 C13.1083609,14.9388479 13.5536787,12.6548678 14.2202791,11.7137354 C15.2540327,10.2564816 16.3631986,10.1151564 17.1123672,10.2564816 C19.7066595,10.7389543 20.8763754,15.2908666 20.8857331,15.3359043 C21.5303153,18.3648181 20.3594985,19.8665919 19.264094,20.593407 C17.4151172,21.8192603 14.6920186,21.493643 13.4380832,20.7859819 C10.3280151,19.0310652 9.62013053,16.497566 9.5744428,14.6805283 C9.49022326,11.3643051 11.4779146,8.30018945 13.391845,7.10021984 C16.0417332,5.43848454 18.9877658,5.66781436 21.4714167,7.72919442 C25.1176276,10.7565552 27.0871539,17.1229168 25.3746898,20.3433702 C23.4326862,23.9950465 20.2983981,26 16.63127,26 Z M16.0845157,30 C14.9348455,30 13.9050564,29.8557557 13.0394288,29.6610017 C10.2114238,29.0257442 7.58700058,27.4599412 6.18892823,25.5735955 C5.84440518,25.1078371 5.98426642,24.4803503 6.50105099,24.1700066 C7.01675554,23.8596629 7.71552172,23.986423 8.06112477,24.4507244 C9.89498097,26.9252176 15.9397944,29.9781448 22.2508301,26.1937972 C22.7676147,25.8844249 23.4658409,26.0087566 23.8109039,26.474515 C24.155427,26.9397877 24.0161057,27.5672745 23.4993212,27.8776182 C20.7987573,29.4963593 18.2315746,30 16.0845157,30 Z"/>
</svg>

<svg height="32" width="32" xmlns="http://www.w3.org/2000/svg">
    <path d="M7.177 12c-.067 0-.136-.005-.205-.015-.64-.093-1.067-.599-.954-1.13 1.4-6.592 6.243-8.28 9.006-8.7 4.62-.698 9.317 1.06 10.81 3.142.332.463.15 1.062-.41 1.337-.559.276-1.28.122-1.612-.34-.92-1.284-4.637-2.783-8.364-2.22-2.64.4-6.017 1.962-7.112 7.12-.101.473-.598.806-1.159.806zm9.454 14c-.486 0-.98-.034-1.483-.106-4.51-.637-8.436-4.083-9.132-8.013-.104-.588.318-1.143.942-1.24.627-.107 1.215.3 1.32.886.53 2.999 3.699 5.737 7.21 6.234 1.91.267 5.471.061 7.834-4.382 1.14-2.146-.317-7.498-3.37-10.032-1.714-1.423-3.495-1.578-5.29-.452-1.397.876-2.855 3.39-2.795 5.734.046 1.855.972 3.304 2.75 4.307.604.34 2.324.557 3.325-.106.784-.52 1.017-1.554.695-3.072-.255-1.193-1.415-3.313-1.97-3.387.002.001-.2.06-.54.539-.272.384-.537 1.82-.18 2.448.067.118.126.189.373.189.633 0 1.147.482 1.147 1.078s-.513 1.08-1.146 1.08c-1.057 0-1.907-.471-2.394-1.328-.819-1.438-.373-3.722.293-4.663 1.034-1.458 2.143-1.599 2.892-1.458 2.595.483 3.764 5.035 3.774 5.08.644 3.029-.527 4.53-1.622 5.257-1.849 1.226-4.572.9-5.826.193-3.11-1.755-3.818-4.288-3.864-6.105-.084-3.317 1.904-6.38 3.818-7.58 2.65-1.663 5.596-1.433 8.08.628 3.646 3.028 5.615 9.394 3.903 12.614C23.433 23.995 20.298 26 16.63 26zm-.546 4c-1.15 0-2.18-.144-3.046-.339-2.828-.635-5.452-2.201-6.85-4.087-.345-.466-.205-1.094.312-1.404.516-.31 1.215-.184 1.56.28 1.834 2.475 7.879 5.528 14.19 1.744.517-.31 1.215-.185 1.56.28.344.466.205 1.093-.312 1.404C20.8 29.496 18.232 30 16.085 30z" fill="#f4f4f7"/>
</svg>
